X:39
T:Mullin's Fancy
M:2/2
R:Reel
K:D
|: fAdf edB/c/d | fAdf g2ag | fAdf edBc | dAAF EFD2 :|
|  faa/a/a afde | faaf g2ge | faa/a/a afd2 | gfed B/c/dAd |
|  faa/a/a afde | faaf g2ga | bgaf gfed | B/c/def g2ag |

